images/logo.svg

<svg width="126" height="53" viewBox="0 0 126 53" fill="none" xmlns="http://www.w3.org/2000/svg">
<path d="M59.4542 20.6894L57.7489 17.827H55.7253V15.1907H58.6657C58.9792 15.1907 59.2405 15.0588 59.44 14.8015C59.6395 14.5378 59.744 14.1926 59.744 13.7532C59.744 13.3138 59.6442 12.9623 59.44 12.7049C59.2405 12.4413 58.9792 12.3158 58.6657 12.3158H55.065V20.6956H52.7802V9.41577H58.6657C59.155 9.41577 59.6062 9.5162 60.0195 9.71707C60.4328 9.91793 60.7891 10.2067 61.0883 10.577C61.3923 10.9474 61.6251 11.393 61.7914 11.914C61.9576 12.435 62.0431 13.0062 62.0431 13.6339C62.0431 14.5002 61.8864 15.2597 61.5681 15.9062C61.2546 16.5528 60.8271 17.0487 60.295 17.3814L62.4469 20.6956H59.4542V20.6894Z" fill="white"/>
<path d="M66.2799 20.6895C65.7717 20.6895 65.3014 20.5828 64.8739 20.3757C64.4463 20.1685 64.0711 19.8735 63.7576 19.4906C63.444 19.1077 63.197 18.6495 63.0213 18.1222C62.8455 17.5886 62.76 16.9986 62.76 16.3521C62.76 15.7181 62.8455 15.128 63.0213 14.6008C63.197 14.0672 63.4393 13.609 63.7576 13.2324C64.0711 12.8495 64.4463 12.5544 64.8739 12.3473C65.3014 12.1402 65.7717 12.0334 66.2799 12.0334H67.9473C68.3225 12.0334 68.6503 12.1025 68.9306 12.2406C69.2108 12.3787 69.4436 12.5733 69.6336 12.8118C69.8236 13.0566 69.9614 13.3454 70.0516 13.6906C70.1419 14.0358 70.1894 14.4062 70.1894 14.8079C70.1894 15.5737 70.0231 16.1449 69.6906 16.5278C69.3581 16.9107 68.8118 17.099 68.047 17.099H65.7099V15.5172H67.5862C67.9283 15.5172 68.0993 15.3163 68.0993 14.9083C68.0993 14.4815 67.933 14.2681 67.6005 14.2681H66.2609C65.8667 14.2681 65.5484 14.4501 65.3014 14.8079C65.0544 15.1657 64.9356 15.6741 64.9356 16.3332C64.9356 16.9923 65.0591 17.4882 65.3014 17.8146C65.5484 18.1473 65.8667 18.3105 66.2609 18.3105H69.8331V20.6895H66.2799Z" fill="white"/>
<path d="M73.5436 20.6895C72.7456 20.6895 72.1471 20.4133 71.7528 19.8672C71.3538 19.3148 71.1543 18.5365 71.1543 17.5133V9.5603H73.3346V12.0272H75.9615V14.425H73.3346V17.2874C73.3346 17.9716 73.5911 18.3105 74.1089 18.3105H75.895V20.6895H73.5436Z" fill="white"/>
<path d="M78.9964 20.6895C78.3029 20.6895 77.7899 20.451 77.4479 19.9802C77.1059 19.5094 76.9348 18.8943 76.9348 18.141C76.9348 17.3752 77.1059 16.7601 77.4479 16.283C77.7899 15.8122 78.3077 15.5737 78.9964 15.5737H81.4381V17.2559H79.4952C79.1722 17.2559 79.0107 17.4568 79.0107 17.8648C79.0107 18.2728 79.1627 18.4737 79.4715 18.4737H82.0841V15.9754C82.0841 14.9899 81.7041 14.5003 80.9393 14.5003H77.2864V12.0334H80.963C82.0556 12.0334 82.8774 12.3912 83.4189 13.1005C83.9604 13.8099 84.2312 14.833 84.2312 16.1637V20.6958H78.9964V20.6895Z" fill="white"/>
<path d="M86.4837 11.1731C86.1939 11.1731 85.9564 11.0601 85.7664 10.8341C85.5764 10.6081 85.4861 10.3006 85.4861 9.90511C85.4861 9.53477 85.5811 9.23974 85.7664 9.01376C85.9517 8.78779 86.1939 8.6748 86.4837 8.6748H86.7877C87.0775 8.6748 87.315 8.78779 87.4955 9.01376C87.6807 9.23974 87.771 9.53477 87.771 9.90511C87.771 10.3006 87.6807 10.6081 87.4955 10.8341C87.3102 11.0601 87.0775 11.1731 86.7877 11.1731H86.4837ZM85.5241 20.6891V12.0268H87.7187V20.6891H85.5241Z" fill="white"/>
<path d="M89.0196 20.6891V8.52417H91.2142V20.6891H89.0196Z" fill="white"/>
<path d="M95.9122 20.6894V17.7706H102.296C102.463 17.7706 102.6 17.7015 102.705 17.5697C102.81 17.4379 102.862 17.2496 102.862 17.0048C102.862 16.76 102.81 16.5717 102.705 16.4336C102.6 16.2955 102.463 16.2264 102.296 16.2264H98.539C98.1448 16.2264 97.779 16.1448 97.4417 15.9753C97.1045 15.8059 96.8147 15.5736 96.5725 15.2786C96.3302 14.9836 96.1449 14.6258 96.0072 14.2115C95.8694 13.7972 95.8029 13.3327 95.8029 12.8243C95.8029 12.3158 95.8694 11.8513 96.0072 11.4245C96.1449 11.0039 96.3302 10.6398 96.5725 10.3385C96.8147 10.0372 97.1045 9.80498 97.4417 9.64178C97.779 9.47857 98.1448 9.39697 98.539 9.39697H105.028V12.297H98.6436C98.4773 12.297 98.3443 12.3598 98.2445 12.4853C98.1448 12.6108 98.0925 12.7991 98.0925 13.0377C98.0925 13.2699 98.1448 13.452 98.2445 13.5901C98.3443 13.7281 98.4773 13.7972 98.6436 13.7972H102.401C102.805 13.7972 103.171 13.8788 103.503 14.0483C103.836 14.2178 104.125 14.45 104.372 14.7513C104.619 15.0526 104.809 15.4167 104.942 15.8372C105.08 16.2578 105.147 16.7223 105.147 17.2182C105.147 17.7392 105.08 18.21 104.942 18.6305C104.805 19.0511 104.615 19.4152 104.372 19.7227C104.125 20.0303 103.836 20.2626 103.503 20.4258C103.171 20.589 102.805 20.6706 102.401 20.6706H95.9122V20.6894Z" fill="white"/>
<path d="M109.455 20.6895C108.946 20.6895 108.476 20.5828 108.048 20.3757C107.621 20.1685 107.246 19.8735 106.932 19.4906C106.619 19.1077 106.372 18.6495 106.196 18.1222C106.02 17.5886 105.935 16.9986 105.935 16.3521C105.935 15.7181 106.02 15.128 106.196 14.6008C106.372 14.0672 106.614 13.609 106.932 13.2324C107.246 12.8495 107.621 12.5544 108.048 12.3473C108.476 12.1402 108.946 12.0334 109.455 12.0334H110.376C110.884 12.0334 111.35 12.1402 111.782 12.3473C112.21 12.5544 112.585 12.8495 112.898 13.2324C113.212 13.6153 113.459 14.0735 113.635 14.6008C113.811 15.1343 113.896 15.7181 113.896 16.3521C113.896 16.9986 113.811 17.5886 113.635 18.1222C113.459 18.6557 113.217 19.114 112.898 19.4906C112.585 19.8735 112.21 20.1685 111.782 20.3757C111.355 20.5828 110.884 20.6895 110.376 20.6895H109.455ZM110.371 18.0469C110.756 18.0469 111.074 17.8899 111.321 17.5761C111.568 17.2622 111.697 16.8542 111.697 16.3458C111.697 15.8373 111.573 15.4293 111.321 15.1218C111.07 14.8142 110.756 14.6635 110.371 14.6635H109.44C109.046 14.6635 108.728 14.8205 108.481 15.1218C108.234 15.4293 108.115 15.8373 108.115 16.3458C108.115 16.8542 108.238 17.2622 108.481 17.5761C108.728 17.8899 109.046 18.0469 109.44 18.0469H110.371Z" fill="white"/>
<path d="M114.918 20.6903V11.7204C114.918 10.7035 115.117 9.91887 115.521 9.36649C115.925 8.81411 116.519 8.54419 117.307 8.54419H119.777V10.8353H117.887C117.626 10.8353 117.426 10.9295 117.298 11.1115C117.17 11.2935 117.098 11.6011 117.098 12.0342H119.815V14.4321H117.098V20.6966H114.918V20.6903Z" fill="white"/>
<path d="M122.969 20.6895C122.171 20.6895 121.573 20.4133 121.178 19.8672C120.779 19.3148 120.58 18.5365 120.58 17.5133V9.5603H122.76V12.0272H125.387V14.425H122.76V17.2874C122.76 17.9716 123.017 18.3105 123.534 18.3105H125.321V20.6895H122.969Z" fill="white"/>
<path d="M57.0222 41.5165C56.3667 41.5165 55.7634 41.3784 55.2076 41.1085C54.6566 40.8386 54.1816 40.4557 53.7826 39.9661C53.3835 39.4765 53.07 38.8802 52.842 38.1897C52.614 37.4929 52.5 36.7271 52.5 35.8797C52.5 35.0323 52.614 34.2665 52.842 33.5823C53.07 32.8918 53.3835 32.3018 53.7826 31.8059C54.1816 31.31 54.6566 30.9208 55.2076 30.6509C55.7587 30.381 56.3619 30.2429 57.0222 30.2429H61.1977V33.1429H56.8655C56.5662 33.1429 56.2907 33.212 56.0389 33.3438C55.7872 33.4756 55.5639 33.6639 55.3834 33.9087C55.1981 34.1535 55.0556 34.4423 54.9511 34.775C54.8466 35.1139 54.7944 35.4843 54.7944 35.886C54.7944 36.2877 54.8466 36.6581 54.9511 36.997C55.0556 37.336 55.2029 37.6185 55.3834 37.857C55.5686 38.0955 55.7872 38.2776 56.0389 38.4094C56.2907 38.5412 56.5709 38.6102 56.8655 38.6102H61.1977V41.5291H57.0222V41.5165Z" fill="white"/>
<path d="M65.2685 41.5163C64.7602 41.5163 64.29 41.4096 63.8625 41.2025C63.4349 40.9953 63.0597 40.7003 62.7461 40.3174C62.4326 39.9345 62.1856 39.4763 62.0099 38.949C61.8341 38.4155 61.7486 37.8254 61.7486 37.1789C61.7486 36.5449 61.8341 35.9549 62.0099 35.4276C62.1856 34.894 62.4279 34.4358 62.7461 34.0529C63.0597 33.67 63.4349 33.375 63.8625 33.1679C64.29 32.9607 64.7602 32.854 65.2685 32.854H66.1901C66.6983 32.854 67.1686 32.9607 67.5961 33.1679C68.0237 33.375 68.3989 33.67 68.7124 34.0529C69.026 34.4358 69.273 34.894 69.4487 35.4276C69.6245 35.9611 69.71 36.5449 69.71 37.1789C69.71 37.8254 69.6245 38.4155 69.4487 38.949C69.273 39.4826 69.0307 39.9345 68.7124 40.3174C68.3989 40.7003 68.0237 40.9953 67.5961 41.2025C67.1686 41.4096 66.6983 41.5163 66.1901 41.5163H65.2685ZM66.1901 38.8737C66.5748 38.8737 66.8931 38.7168 67.1401 38.4029C67.3871 38.0891 67.5154 37.6811 67.5154 37.1726C67.5154 36.6642 67.3919 36.2562 67.1401 35.9486C66.8884 35.641 66.5748 35.4904 66.1901 35.4904H65.259C64.8648 35.4904 64.5465 35.6473 64.2995 35.9486C64.0525 36.2562 63.9337 36.6642 63.9337 37.1726C63.9337 37.6811 64.0572 38.0891 64.2995 38.4029C64.5465 38.7168 64.8648 38.8737 65.259 38.8737H66.1901Z" fill="white"/>
<path d="M76.251 41.5164V36.9718C76.251 35.9863 75.871 35.4967 75.1062 35.4967H72.9116V41.5227H70.7075V32.8604H75.1584C76.2462 32.8604 77.0633 33.2181 77.6143 33.9337C78.1653 34.6493 78.4408 35.6725 78.4408 36.9907V41.5227H76.251V41.5164Z" fill="white"/>
<path d="M79.3906 41.5164V39.1374H84.0126C84.3214 39.1374 84.4734 38.9554 84.4734 38.585C84.4734 38.2272 84.3214 38.0452 84.0126 38.0452H81.438C81.1054 38.0452 80.8062 37.9762 80.5449 37.8443C80.2837 37.7125 80.0604 37.5305 79.8751 37.2982C79.6899 37.066 79.5521 36.7898 79.4571 36.4759C79.3621 36.1558 79.3146 35.8168 79.3146 35.4465C79.3146 35.051 79.3669 34.6995 79.4714 34.3794C79.5759 34.0593 79.7231 33.7894 79.9179 33.5634C80.1126 33.3374 80.3359 33.1617 80.5877 33.0424C80.8442 32.9231 81.1197 32.8604 81.4285 32.8604H86.25V35.2394H81.837C81.5377 35.2394 81.3905 35.4214 81.3905 35.7792C81.3905 36.137 81.5377 36.319 81.837 36.319H84.4639C85.1384 36.319 85.6609 36.5638 86.0267 37.0471C86.3925 37.5368 86.5777 38.1519 86.5777 38.9052C86.5777 39.3132 86.5255 39.671 86.421 39.9911C86.3165 40.3112 86.1692 40.5874 85.9792 40.8134C85.7892 41.0456 85.5659 41.2214 85.3094 41.3406C85.0529 41.4599 84.7679 41.5227 84.4639 41.5227H79.3906V41.5164Z" fill="white"/>
<path d="M90.7391 41.5164C89.6465 41.5164 88.8247 41.1586 88.2785 40.4493C87.7322 39.74 87.4567 38.7169 87.4567 37.3861V32.8604H89.6513V37.3861C89.6513 38.3842 90.0313 38.8801 90.7961 38.8801H91.9504C92.7104 38.8801 93.0904 38.3842 93.0904 37.3861V32.8604H95.2851V37.3861C95.2851 38.7169 95.0095 39.74 94.4633 40.4493C93.917 41.1586 93.0952 41.5164 91.9979 41.5164H90.7391Z" fill="white"/>
<path d="M96.5063 41.5165V29.3516H98.7009V41.5165H96.5063Z" fill="white"/>
<path d="M102.321 41.5163C101.523 41.5163 100.924 41.2401 100.53 40.694C100.131 40.1416 99.9315 39.3632 99.9315 38.3401V30.3933H102.112V32.8602H104.739V35.2517H102.112V38.1141C102.112 38.7983 102.368 39.1373 102.886 39.1373H104.672V41.5163H102.321Z" fill="white"/>
<path d="M106.828 32.0005C106.539 32.0005 106.301 31.8875 106.111 31.6615C105.921 31.4355 105.831 31.1279 105.831 30.7325C105.831 30.3621 105.926 30.0671 106.111 29.8412C106.296 29.6152 106.539 29.5022 106.828 29.5022H107.132C107.422 29.5022 107.66 29.6152 107.84 29.8412C108.025 30.0671 108.116 30.3684 108.116 30.7325C108.116 31.1279 108.025 31.4355 107.84 31.6615C107.655 31.8875 107.422 32.0005 107.132 32.0005H106.828ZM105.869 41.5165V32.8541H108.063V41.5165H105.869Z" fill="white"/>
<path d="M114.904 41.5164V36.9718C114.904 35.9863 114.524 35.4967 113.759 35.4967H111.564V41.5227H109.355V32.8604H113.806C114.894 32.8604 115.711 33.2181 116.262 33.9337C116.813 34.6493 117.089 35.6725 117.089 36.9907V41.5227H114.904V41.5164Z" fill="white"/>
<path d="M120.865 44.5358V41.8994H122.518C122.998 41.8994 123.335 41.7613 123.525 41.4914C123.715 41.2215 123.806 40.8072 123.806 40.2485V36.7459C123.806 35.9236 123.435 35.5156 122.689 35.5156H121.573C121.179 35.5156 120.856 35.6286 120.609 35.8546C120.362 36.0806 120.234 36.4446 120.234 36.9593C120.234 37.4803 120.371 37.8381 120.642 38.0327C120.913 38.2273 121.298 38.3277 121.796 38.3277C121.996 38.3277 122.214 38.3152 122.452 38.2964C122.689 38.2713 122.927 38.2336 123.16 38.1771V40.5373C122.913 40.6189 122.651 40.6816 122.371 40.7256C122.091 40.7695 121.806 40.7946 121.516 40.7946C120.376 40.7946 119.512 40.4431 118.923 39.7464C118.334 39.0496 118.034 38.108 118.034 36.928C118.034 36.2814 118.124 35.7039 118.305 35.2018C118.486 34.6996 118.733 34.2728 119.056 33.9275C119.379 33.5823 119.759 33.3187 120.21 33.1366C120.661 32.9546 121.16 32.8667 121.716 32.8667H122.913C123.891 32.8667 124.651 33.2245 125.193 33.9338C125.73 34.6431 126 35.6663 126 36.997V40.2736C126 41.7174 125.725 42.7907 125.174 43.4938C124.623 44.1905 123.734 44.542 122.509 44.542H120.865V44.5358Z" fill="white"/>
<path d="M19.0009 37.0156H0V2.56714L19.0009 37.0156Z" fill="white"/>
<path d="M34.8951 37.1036C37.37 35.5469 39.3413 33.2683 40.8044 30.2616C42.2675 27.2549 42.999 23.7397 42.999 19.7161C42.999 16.8161 42.6142 14.1609 41.84 11.7505C41.0704 9.33386 39.9826 7.26871 38.5813 5.55508C37.18 3.84144 35.5269 2.51071 33.6173 1.56915C31.7077 0.633869 29.6176 0.163086 27.3423 0.163086L2.00452 0.232134L9.41963 13.5332L27.3423 13.6085C28.8053 13.6085 30.0024 14.2111 30.9334 15.4163C31.8692 16.6215 32.3347 18.2473 32.3347 20.2873C32.3347 22.3274 31.8692 23.9469 30.9334 25.1583C29.9976 26.3635 28.8006 26.9661 27.3423 26.9661H16.602L30.9952 52.4761H44.8801L34.8951 37.1036Z" fill="white"/>
</svg>

<svg width="126" height="53" fill="none" xmlns="http://www.w3.org/2000/svg"><path d="M59.454 20.69l-1.705-2.863h-2.024v-2.636h2.94a.943.943 0 00.775-.39c.2-.263.304-.608.304-1.048 0-.44-.1-.79-.304-1.048a.927.927 0 00-.774-.39h-3.601v8.38H52.78V9.416h5.886c.489 0 .94.101 1.354.302.413.2.77.49 1.068.86.304.37.537.816.703 1.337a5.6 5.6 0 01.252 1.72c0 .866-.157 1.626-.475 2.272-.313.647-.74 1.143-1.273 1.475l2.152 3.315h-2.993v-.007zm6.826 0a3.19 3.19 0 01-1.406-.314 3.282 3.282 0 01-1.116-.885 4.271 4.271 0 01-.737-1.369 5.633 5.633 0 01-.261-1.77c0-.634.086-1.224.261-1.751.176-.534.418-.992.737-1.369a3.281 3.281 0 011.116-.885 3.189 3.189 0 011.406-.314h1.667c.376 0 .703.07.984.208.28.138.513.332.703.57.19.246.327.534.418.88a4.4 4.4 0 01.137 1.117c0 .766-.166 1.337-.498 1.72-.333.383-.88.571-1.644.571H65.71v-1.582h1.876c.342 0 .513-.2.513-.609 0-.426-.166-.64-.499-.64h-1.34c-.393 0-.712.182-.959.54-.247.358-.365.866-.365 1.525 0 .66.123 1.155.365 1.482.247.332.566.495.96.495h3.572v2.38H66.28zm7.264 0c-.798 0-1.397-.277-1.791-.823-.4-.552-.599-1.33-.599-2.354V9.56h2.18v2.467h2.627v2.398h-2.626v2.862c0 .685.256 1.024.774 1.024h1.786v2.378h-2.351zm5.452 0c-.693 0-1.206-.239-1.548-.71-.342-.47-.513-1.086-.513-1.839 0-.766.17-1.38.513-1.858.342-.47.86-.71 1.548-.71h2.442v1.683h-1.943c-.323 0-.484.2-.484.609 0 .408.152.609.46.609h2.613v-2.499c0-.985-.38-1.475-1.145-1.475h-3.653v-2.467h3.677c1.093 0 1.914.358 2.456 1.068.541.709.812 1.732.812 3.063v4.532h-5.235v-.007zm7.488-9.517a.896.896 0 01-.718-.339c-.19-.226-.28-.533-.28-.929 0-.37.095-.665.28-.891a.89.89 0 01.718-.34h.304c.29 0 .527.114.708.34.185.226.275.52.275.891 0 .396-.09.703-.275.93a.871.871 0 01-.708.338h-.304zm-.96 9.516v-8.662h2.195v8.662h-2.195zm3.496.001V8.523h2.194V20.69H89.02zm6.892 0v-2.92h6.384a.504.504 0 00.409-.2c.105-.132.157-.32.157-.565 0-.245-.052-.433-.157-.571a.492.492 0 00-.409-.208h-3.757c-.394 0-.76-.081-1.097-.25a2.657 2.657 0 01-.87-.697 3.302 3.302 0 01-.565-1.068 4.39 4.39 0 01-.204-1.387c0-.508.066-.973.204-1.4.138-.42.323-.784.566-1.085.242-.302.532-.534.869-.697a2.486 2.486 0 011.097-.245h6.489v2.9h-6.384c-.167 0-.3.063-.4.188-.1.126-.151.314-.151.553 0 .232.052.414.151.552a.47.47 0 00.4.207h3.757c.404 0 .77.082 1.102.251a2.7 2.7 0 01.869.703c.247.302.437.666.57 1.086.138.42.205.885.205 1.381 0 .521-.067.992-.205 1.413-.137.42-.327.784-.57 1.092-.247.307-.536.54-.869.703a2.46 2.46 0 01-1.102.245h-6.489v.018zm13.543 0a3.192 3.192 0 01-2.523-1.2 4.288 4.288 0 01-.736-1.368 5.628 5.628 0 01-.261-1.77c0-.634.085-1.224.261-1.751.176-.534.418-.992.736-1.369a3.192 3.192 0 012.523-1.199h.921a3.204 3.204 0 012.522 1.2c.314.382.561.84.737 1.368.176.533.261 1.117.261 1.751 0 .647-.085 1.237-.261 1.77-.176.534-.418.992-.737 1.369a3.273 3.273 0 01-1.116.885 3.188 3.188 0 01-1.406.313h-.921zm.916-2.643c.385 0 .703-.157.95-.47.247-.315.376-.723.376-1.231 0-.509-.124-.917-.376-1.224a1.169 1.169 0 00-.95-.458h-.931c-.394 0-.712.156-.959.458-.247.307-.366.715-.366 1.224 0 .508.123.916.366 1.23.247.314.565.47.959.47h.931zm4.547 2.643v-8.97c0-1.017.199-1.801.603-2.354.404-.552.998-.822 1.786-.822h2.47v2.291h-1.89c-.261 0-.461.095-.589.276-.128.182-.2.49-.2.923h2.717v2.398h-2.717v6.265h-2.18v-.007zm8.051 0c-.798 0-1.396-.277-1.791-.823-.399-.552-.598-1.33-.598-2.354V9.56h2.18v2.467h2.627v2.398h-2.627v2.862c0 .685.257 1.024.774 1.024h1.787v2.378h-2.352zM57.022 41.517a4.096 4.096 0 01-1.814-.409 4.222 4.222 0 01-1.425-1.142c-.4-.49-.713-1.086-.941-1.776-.228-.697-.342-1.463-.342-2.31 0-.848.114-1.614.342-2.298.228-.69.541-1.28.94-1.776a4.185 4.185 0 011.426-1.155 4.066 4.066 0 011.814-.408h4.176v2.9h-4.333c-.299 0-.574.069-.826.2a1.92 1.92 0 00-.656.566 2.819 2.819 0 00-.432.866c-.104.339-.157.71-.157 1.111 0 .402.053.772.157 1.111.105.339.252.621.432.86.186.239.404.42.656.552.252.132.532.201.826.201h4.333v2.92h-4.176v-.014zm8.247-.001c-.509 0-.979-.106-1.407-.313a3.284 3.284 0 01-1.116-.886 4.273 4.273 0 01-.736-1.368 5.633 5.633 0 01-.261-1.77c0-.634.085-1.224.26-1.751a4.18 4.18 0 01.737-1.375 3.282 3.282 0 011.116-.885 3.187 3.187 0 011.407-.314h.921c.508 0 .979.107 1.406.314a3.28 3.28 0 011.116.885c.314.383.561.841.737 1.375.175.533.261 1.117.261 1.75 0 .647-.085 1.238-.261 1.771a4.119 4.119 0 01-.737 1.368 3.282 3.282 0 01-1.116.886 3.189 3.189 0 01-1.406.313h-.921zm.921-2.642c.385 0 .703-.157.95-.471.247-.314.375-.722.375-1.23 0-.509-.123-.917-.375-1.224a1.17 1.17 0 00-.95-.459h-.931c-.394 0-.713.157-.96.459-.247.307-.365.715-.365 1.224 0 .508.123.916.365 1.23.247.314.566.47.96.47h.931zm10.061 2.642v-4.544c0-.986-.38-1.475-1.145-1.475h-2.194v6.026h-2.205V32.86h4.451c1.088 0 1.905.358 2.456 1.074.551.715.827 1.739.827 3.057v4.532h-2.19v-.007zm3.139 0v-2.379h4.623c.308 0 .46-.182.46-.552 0-.358-.152-.54-.46-.54h-2.575a1.96 1.96 0 01-.893-.2 2.002 2.002 0 01-.67-.547 2.436 2.436 0 01-.418-.822 3.581 3.581 0 01-.142-1.03c0-.395.052-.746.156-1.067.105-.32.252-.59.447-.816.195-.226.418-.401.67-.52.256-.12.532-.183.84-.183h4.822v2.38h-4.413c-.3 0-.447.181-.447.54 0 .357.148.539.447.539h2.627c.674 0 1.197.245 1.563.728.365.49.55 1.105.55 1.858 0 .408-.052.766-.156 1.086-.105.32-.252.596-.442.822-.19.233-.413.408-.67.528a1.993 1.993 0 01-.845.182H79.39v-.007zm11.35 0c-1.093 0-1.915-.357-2.462-1.067-.546-.709-.821-1.732-.821-3.063V32.86h2.194v4.526c0 .998.38 1.494 1.145 1.494h1.154c.76 0 1.14-.496 1.14-1.494V32.86h2.195v4.526c0 1.33-.275 2.354-.822 3.063-.546.71-1.368 1.067-2.465 1.067h-1.259zm5.766.001V29.352h2.195v12.165h-2.195zm5.815-.001c-.798 0-1.397-.276-1.791-.822-.399-.552-.599-1.33-.599-2.354v-7.947h2.181v2.467h2.627v2.392h-2.627v2.862c0 .684.256 1.023.774 1.023h1.786v2.38h-2.351zM106.828 32a.896.896 0 01-.717-.338c-.19-.226-.28-.534-.28-.93 0-.37.095-.665.28-.89a.89.89 0 01.717-.34h.304c.29 0 .528.113.708.34.185.225.276.526.276.89 0 .396-.091.704-.276.93a.871.871 0 01-.708.339h-.304zm-.959 9.517v-8.663h2.194v8.663h-2.194zm9.035-.001v-4.544c0-.986-.38-1.475-1.145-1.475h-2.195v6.026h-2.209V32.86h4.451c1.088 0 1.905.358 2.456 1.074.551.715.827 1.739.827 3.057v4.532h-2.185v-.007zm5.961 3.02v-2.637h1.653c.48 0 .817-.138 1.007-.408.19-.27.281-.684.281-1.242v-3.503c0-.822-.371-1.23-1.117-1.23h-1.116c-.394 0-.717.113-.964.339-.247.226-.375.59-.375 1.104 0 .521.137.88.408 1.074.271.194.656.295 1.154.295.2 0 .418-.013.656-.032.237-.025.475-.062.708-.119v2.36a5.512 5.512 0 01-1.644.257c-1.14 0-2.004-.35-2.593-1.048-.589-.696-.889-1.638-.889-2.818 0-.647.09-1.224.271-1.726.181-.502.428-.93.751-1.274a3.192 3.192 0 011.154-.791 3.98 3.98 0 011.506-.27h1.197c.978 0 1.738.358 2.28 1.067.537.71.807 1.732.807 3.063v3.277c0 1.443-.275 2.517-.826 3.22-.551.697-1.44 1.048-2.665 1.048h-1.644v-.006zM19 37.016H0V2.567l19 34.449zm15.895.088c2.475-1.557 4.446-3.836 5.91-6.842 1.462-3.007 2.194-6.522 2.194-10.546 0-2.9-.385-5.555-1.159-7.966-.77-2.416-1.857-4.481-3.259-6.195-1.401-1.714-3.054-3.044-4.964-3.986-1.91-.935-4-1.406-6.275-1.406L2.005.233l7.415 13.3 17.922.075c1.463 0 2.66.603 3.591 1.808.936 1.206 1.402 2.831 1.402 4.871 0 2.04-.466 3.66-1.402 4.871-.935 1.205-2.132 1.808-3.59 1.808H16.601l14.393 25.51H44.88l-9.985-15.372z" fill="#fff"/></svg>
